svg/desk_lamp.svg

<svg xmlns="http://www.w3.org/2000/svg" viewBox="0 0 24 24"><path d="M10.85 2 9.18 4.5l1.14.75L7.14 10H7a2 2 0 0 0-2 2 2 2 0 0 0 1.58 1.95L10.62 20H7v2h10v-2h-4l-4.47-6.72A2 2 0 0 0 9 12c0-.3-.07-.6-.2-.87L12 6.37c-.22 1.68.75 3.52 2.45 4.63l4.44-6.63c-1.69-1.13-3.77-1.33-5.24-.5zm7.48 5-1.66 2.5c.68.45 1.62.27 2.08-.42S19 7.46 18.33 7"/></svg>

<?xml version="1.0" encoding="UTF-8"?><!DOCTYPE svg PUBLIC "-//W3C//DTD SVG 1.1//EN" "http://www.w3.org/Graphics/SVG/1.1/DTD/svg11.dtd"><svg xmlns="http://www.w3.org/2000/svg" xmlns:xlink="http://www.w3.org/1999/xlink" version="1.1" id="mdi-desk-lamp" width="24" height="24" viewBox="0 0 24 24"><path d="M10.85,2L9.18,4.5L10.32,5.25L7.14,10C7.1,10 7.05,10 7,10A2,2 0 0,0 5,12C5,12.94 5.66,13.75 6.58,13.95L10.62,20H7V22H17V20H13L8.53,13.28C8.83,12.92 9,12.47 9,12C9,11.7 8.93,11.4 8.8,11.13L12,6.37C11.78,8.05 12.75,9.89 14.45,11L18.89,4.37C17.2,3.24 15.12,3.04 13.65,3.87L10.85,2M18.33,7L16.67,9.5C17.35,9.95 18.29,9.77 18.75,9.08C19.21,8.39 19,7.46 18.33,7Z" /></svg>
